.icons/oomox-ad/32x32/apps/komodo.svg

<svg xmlns="http://www.w3.org/2000/svg" width="32" height="32" version="1">
 <path fill="#fecd38" d="m16.03 2.0003a1.28 1.3121 0 0 0 -0.66996 0.17622l-10.72 6.3441a1.28 1.3121 0 0 0 -0.64 1.1358v12.689a1.28 1.3121 0 0 0 0.63972 1.1358l10.721 6.344a1.28 1.3121 0 0 0 1.2794 0l10.719-6.345a1.28 1.3121 0 0 0 0.641 -1.135v-12.689a1.28 1.3121 0 0 0 -0.641 -1.1354l-10.719-6.344a1.28 1.3121 0 0 0 -0.60948 -0.17622z"/>
 <path fill="#3f3f3f" d="m11.891 23.927c-0.04-0.03992-0.07273-0.1869-0.07273-0.32662 0-0.31145-0.16966-0.33026-0.32732-0.03629-0.18664 0.348-0.33948 0.25245-0.30476-0.19052 0.02497-0.31868-0.004-0.39903-0.13166-0.36617-0.72932 0.18761-0.73366 0.18142-0.24549-0.34949 0.52163-0.56728 0.6168-0.90924 0.21822-0.78406-0.13502 0.04241-0.52756 0.10298-0.8723 0.13462-1.0617 0.09742-2.1554-0.59174-2.1554-1.3581 0-0.32329 0.5645-0.77611 1.3765-1.1042 0.41307-0.1669 0.76362-0.37222 0.77902-0.45626 0.01544-0.08405-0.14583-0.26457-0.35828-0.40118-0.4862-0.313-0.7589-0.752-1.0468-1.687-0.3317-1.076-0.2583-2.936 0.1642-4.161 1.4649-4.2481 5.7239-6.0098 9.7419-4.0308 2.5719 1.2666 4.4303 3.2725 4.8353 5.219 0.10965 0.52702 0.09894 0.64007-0.09687 1.0231-0.25755 0.50375-0.83299 1.109-1.0544 1.109-0.08493 0-0.28881-0.15922-0.45306-0.35383-0.43-0.5095-2.3701-2.4266-3.1787-3.141l-0.69016-0.60978 0.07661-0.61182c0.07331-0.58543 0.06441-0.61737-0.206-0.74031-0.41139-0.18704-0.98518-0.0035-1.0332 0.33049-0.0272 0.18917 0.11356 0.40743 0.5418 0.84012l0.57854 0.58456-0.65091 0.0015c-1.1817 0.0028-1.41 0.18952-0.82841 0.67785 0.43072 0.36164 0.58052 0.67949 0.54274 1.1515l-0.03206 0.40101 0.51534-0.0264c0.396-0.02029 0.51534 0.01124 0.51534 0.13609 0 0.08937-0.04909 0.16249-0.10911 0.16249-0.18128 0-0.12242 0.30796 0.08183 0.42808 0.14826 0.0872 0.15963 0.13293 0.05086 0.20464-0.07705 0.05079-0.10862 0.17417-0.07016 0.27417 0.10565 0.27472-0.11133 0.22531-0.95628-0.21774-0.6973-0.36563-0.78472-0.45083-1.0296-1.0034-0.43378-0.97874-0.8043-1.2403-0.8043-0.56776 0 0.16653-0.10339 0.6903-0.22976 1.1639-0.40236 1.5081-0.44976 1.351 0.40798 1.3517 0.85952 0.000628 1.4809 0.14512 1.6861 0.39192 0.15039 0.18082 0.16847 0.67655 0.04806 1.3171-0.06991 0.37182-0.06221 0.38371 0.20522 0.31673 0.26072-0.0653 0.2738-0.04937 0.21209 0.2585-0.06345 0.31659-0.05189 0.32808 0.32975 0.32808 0.21754 0 0.39552 0.04899 0.39552 0.10887s-0.03972 0.10887-0.08825 0.10887c-0.04856 0-0.18291 0.06907-0.29859 0.15347-0.20641 0.1506-0.20648 0.15773-0.004 0.38105 0.23583 0.26003 0.20838 0.26984-0.64572 0.23064-0.64469-0.02959-0.77998-0.11944-0.87655-0.58216-0.11255-0.5393-0.36208-0.87622-0.53988-0.72897-0.33722 0.27927 0.31576 1.4304 1.1275 1.9877 1.1472 0.78757 2.4558 0.97208 3.6603 0.51608 0.81889-0.31003 2.0075-1.4606 2.6636-2.5784 0.73116-1.2457 0.89104-1.2238 0.62516 0.08551-0.4421 2.1772-1.9415 3.8143-4.1421 4.5228-0.7061 0.22733-1.0984 0.28413-1.9725 0.28557-1.8218 0.003-2.8643-0.50804-4.5513-2.2311-1.061-1.082-1.377-1.166-0.834-0.219l0.34818 0.60725-0.35209 1.0719c-0.19365 0.58953-0.36526 1.0719-0.38135 1.0719-0.01611 0-0.062-0.03267-0.102-0.07258zm0.48419-5.8728c-0.94642-1.8882-1.157-2.649-1.157-4.1797 0-1.1482 0.02428-1.2979 0.29279-1.8057 0.81262-1.5367 2.5495-2.4346 4.7171-2.4387 1.0165-0.0019 2.1671 0.17693 2.6275 0.40835 0.56703 0.28504 1.3757 1.0254 2.202 2.0161 0.96696 1.1593 1.0455 1.3802 0.33736 0.94938-0.19648-0.11954-0.46369-0.21752-0.5938-0.21774-0.41899-0.000733-0.57428-0.12223-0.64639-0.50582-0.05176-0.27538-0.20361-0.47686-0.56939-0.75556-0.82615-0.62945-1.1406-0.34628-0.56998 0.51332 0.48142 0.72526 3.1338 3.274 3.3629 3.2314 0.33314-0.06192 0.58795-0.7286 0.53378-1.3965-0.0917-1.1303-0.88919-2.305-2.1364-3.147-1.1382-0.76839-3.2962-1.7495-4.2688-1.9407-3.0987-0.60917-6.1232 1.3181-6.568 4.1852-0.26637 1.7172 0.68512 3.9875 2.4668 5.886 0.29565 0.31503 0.55571 0.55464 0.57793 0.53248 0.02223-0.02217-0.2516-0.62287-0.60847-1.3349z"/>
 <path fill="#fff" opacity=".2" d="m16.029 2a1.28 1.3121 0 0 0 -0.67 0.1758l-10.718 6.3457a1.28 1.3121 0 0 0 -0.641 1.1347v0.9998a1.28 1.3121 0 0 1 0.6406 -1.1345l10.718-6.3457a1.28 1.3121 0 0 1 0.67 -0.1758 1.28 1.3121 0 0 1 0.612 0.1758l10.718 6.3457a1.28 1.3121 0 0 1 0.641 1.1345v-0.9998a1.28 1.3121 0 0 0 -0.641 -1.1347l-10.718-6.3457a1.28 1.3121 0 0 0 -0.612 -0.1758z"/>
 <path opacity=".2" d="m4 22.343v1a1.28 1.3121 0 0 0 0.64062 1.1367l10.719 6.3438a1.28 1.3121 0 0 0 1.2812 0l10.719-6.3438a1.28 1.3121 0 0 0 0.64 -1.137v-1a1.28 1.3121 0 0 1 -0.64062 1.1367l-10.719 6.3438a1.28 1.3121 0 0 1 -1.2812 0l-10.718-6.344a1.28 1.3121 0 0 1 -0.641 -1.137z"/>
</svg>

<svg xmlns="http://www.w3.org/2000/svg" width="32" height="32" version="1">
 <path style="fill:#f9a825" d="M 16.03,2.0006 A 1.28,1.3121 0 0 0 15.36,2.1768 L 4.64,8.5209 A 1.28,1.3121 0 0 0 4,9.6567 V 22.345 A 1.28,1.3121 0 0 0 4.6398,23.481 L 15.361,29.825 A 1.28,1.3121 0 0 0 16.64,29.825 L 27.359,23.48 A 1.28,1.3121 0 0 0 28,22.345 V 9.6565 A 1.28,1.3121 0 0 0 27.359,8.5211 L 16.64,2.1771 A 1.28,1.3121 0 0 0 16.031,2.0009 Z"/>
 <path style="opacity:0.2" d="M 11.891,24.927 C 11.851,24.887 11.818,24.74 11.818,24.6 11.818,24.289 11.649,24.27 11.491,24.564 11.304,24.912 11.151,24.817 11.186,24.374 11.211,24.055 11.182,23.975 11.055,24.007 10.325,24.195 10.321,24.189 10.809,23.658 11.331,23.091 11.426,22.749 11.027,22.874 10.892,22.916 10.5,22.977 10.155,23.008 9.0933,23.106 7.9996,22.417 7.9996,21.65 7.9996,21.327 8.5641,20.874 9.3761,20.546 9.7891,20.379 10.14,20.174 10.155,20.09 10.171,20.006 10.009,19.825 9.7968,19.689 9.3106,19.376 9.0379,18.937 8.75,18.002 8.4183,16.926 8.4917,15.066 8.9142,13.841 10.379,9.5929 14.638,7.8312 18.656,9.8102 21.228,11.077 23.086,13.082 23.491,15.029 23.601,15.556 23.59,15.669 23.395,16.052 23.137,16.556 22.562,17.161 22.34,17.161 22.255,17.161 22.051,17.002 21.887,16.807 21.457,16.298 19.517,14.381 18.708,13.666 L 18.018,13.056 18.095,12.445 C 18.168,11.859 18.159,11.827 17.889,11.704 17.477,11.517 16.904,11.701 16.856,12.035 16.828,12.224 16.969,12.442 17.397,12.875 L 17.976,13.459 17.325,13.461 C 16.143,13.464 15.915,13.65 16.497,14.139 16.927,14.5 17.077,14.818 17.039,15.29 L 17.007,15.691 17.523,15.665 C 17.919,15.645 18.038,15.676 18.038,15.801 18.038,15.89 17.989,15.964 17.929,15.964 17.748,15.964 17.806,16.271 18.011,16.392 18.159,16.479 18.17,16.525 18.062,16.596 17.985,16.647 17.953,16.77 17.991,16.87 18.097,17.145 17.88,17.096 17.035,16.653 16.338,16.287 16.25,16.202 16.006,15.649 15.572,14.671 15.201,14.409 15.201,15.081 15.201,15.248 15.098,15.772 14.971,16.245 14.569,17.753 14.522,17.596 15.379,17.597 16.239,17.598 16.86,17.742 17.066,17.989 17.216,18.17 17.234,18.666 17.114,19.306 17.044,19.678 17.051,19.69 17.319,19.623 17.58,19.558 17.593,19.573 17.531,19.881 17.467,20.198 17.479,20.209 17.861,20.209 18.078,20.209 18.256,20.258 18.256,20.318 18.256,20.378 18.216,20.427 18.168,20.427 18.119,20.427 17.985,20.496 17.869,20.581 17.663,20.731 17.663,20.738 17.865,20.962 18.101,21.222 18.074,21.232 17.22,21.192 16.575,21.163 16.44,21.073 16.343,20.61 16.231,20.071 15.981,19.734 15.803,19.881 15.466,20.16 16.119,21.312 16.931,21.869 18.078,22.656 19.387,22.841 20.591,22.385 21.41,22.075 22.599,20.924 23.255,19.807 23.986,18.561 24.146,18.583 23.88,19.892 23.438,22.069 21.938,23.706 19.738,24.415 19.032,24.642 18.639,24.699 17.765,24.7 15.943,24.703 14.901,24.192 13.214,22.469 12.153,21.387 11.837,21.303 12.38,22.25 L 12.728,22.858 12.376,23.929 C 12.182,24.519 12.011,25.001 11.995,25.001 11.978,25.001 11.933,24.969 11.893,24.929 Z M 12.375,19.054 C 11.429,17.166 11.218,16.405 11.218,14.875 11.218,13.726 11.242,13.577 11.511,13.069 12.324,11.532 14.06,10.634 16.228,10.63 17.245,10.629 18.395,10.807 18.856,11.038 19.423,11.323 20.231,12.064 21.058,13.055 22.025,14.214 22.103,14.435 21.395,14.004 21.198,13.884 20.931,13.786 20.801,13.786 20.382,13.785 20.227,13.664 20.155,13.28 20.103,13.005 19.951,12.804 19.585,12.525 18.759,11.895 18.445,12.179 19.015,13.038 19.497,13.763 22.149,16.312 22.378,16.27 22.711,16.208 22.966,15.541 22.912,14.873 22.82,13.743 22.023,12.568 20.776,11.726 19.637,10.958 17.479,9.9768 16.507,9.7856 13.408,9.1765 10.384,11.103 9.9389,13.971 9.6725,15.688 10.624,17.958 12.406,19.857 12.701,20.172 12.961,20.411 12.984,20.389 13.006,20.367 12.732,19.766 12.375,19.054 Z"/>
 <path style="fill:#ffffff" d="M 11.891,23.927 C 11.851,23.887 11.818,23.74 11.818,23.6 11.818,23.289 11.649,23.27 11.491,23.564 11.304,23.912 11.151,23.817 11.186,23.374 11.211,23.055 11.182,22.975 11.055,23.007 10.325,23.195 10.321,23.189 10.809,22.658 11.331,22.091 11.426,21.749 11.027,21.874 10.892,21.916 10.5,21.977 10.155,22.008 9.0933,22.106 7.9996,21.417 7.9996,20.65 7.9996,20.327 8.5641,19.874 9.3761,19.546 9.7891,19.379 10.14,19.174 10.155,19.09 10.171,19.006 10.009,18.825 9.7968,18.689 9.3106,18.376 9.0379,17.937 8.75,17.002 8.4183,15.926 8.4917,14.066 8.9142,12.841 10.379,8.5929 14.638,6.8312 18.656,8.8102 21.228,10.077 23.086,12.082 23.491,14.029 23.601,14.556 23.59,14.669 23.395,15.052 23.137,15.556 22.562,16.161 22.34,16.161 22.255,16.161 22.051,16.002 21.887,15.807 21.457,15.298 19.517,13.381 18.708,12.666 L 18.018,12.056 18.095,11.445 C 18.168,10.859 18.159,10.827 17.889,10.704 17.477,10.517 16.904,10.701 16.856,11.035 16.828,11.224 16.969,11.442 17.397,11.875 L 17.976,12.459 17.325,12.461 C 16.143,12.464 15.915,12.65 16.497,13.139 16.927,13.5 17.077,13.818 17.039,14.29 L 17.007,14.691 17.523,14.665 C 17.919,14.645 18.038,14.676 18.038,14.801 18.038,14.89 17.989,14.964 17.929,14.964 17.748,14.964 17.806,15.271 18.011,15.392 18.159,15.479 18.17,15.525 18.062,15.596 17.985,15.647 17.953,15.77 17.991,15.87 18.097,16.145 17.88,16.096 17.035,15.653 16.338,15.287 16.25,15.202 16.006,14.649 15.572,13.671 15.201,13.409 15.201,14.081 15.201,14.248 15.098,14.772 14.971,15.245 14.569,16.753 14.522,16.596 15.379,16.597 16.239,16.598 16.86,16.742 17.066,16.989 17.216,17.17 17.234,17.666 17.114,18.306 17.044,18.678 17.051,18.69 17.319,18.623 17.58,18.558 17.593,18.573 17.531,18.881 17.467,19.198 17.479,19.209 17.861,19.209 18.078,19.209 18.256,19.258 18.256,19.318 18.256,19.378 18.216,19.427 18.168,19.427 18.119,19.427 17.985,19.496 17.869,19.581 17.663,19.731 17.663,19.738 17.865,19.962 18.101,20.222 18.074,20.232 17.22,20.192 16.575,20.163 16.44,20.073 16.343,19.61 16.231,19.071 15.981,18.734 15.803,18.881 15.466,19.16 16.119,20.312 16.931,20.869 18.078,21.656 19.387,21.841 20.591,21.385 21.41,21.075 22.599,19.924 23.255,18.807 23.986,17.561 24.146,17.583 23.88,18.892 23.438,21.069 21.938,22.706 19.738,23.415 19.032,23.642 18.639,23.699 17.765,23.7 15.943,23.703 14.901,23.192 13.214,21.469 12.153,20.387 11.837,20.303 12.38,21.25 L 12.728,21.858 12.376,22.929 C 12.182,23.519 12.011,24.001 11.995,24.001 11.978,24.001 11.933,23.969 11.893,23.929 Z M 12.375,18.054 C 11.429,16.166 11.218,15.405 11.218,13.875 11.218,12.726 11.242,12.577 11.511,12.069 12.324,10.532 14.06,9.6345 16.228,9.6304 17.245,9.6285 18.395,9.8073 18.856,10.038 19.423,10.323 20.231,11.064 21.058,12.055 22.025,13.214 22.103,13.435 21.395,13.004 21.198,12.884 20.931,12.786 20.801,12.786 20.382,12.785 20.227,12.664 20.155,12.28 20.103,12.005 19.951,11.804 19.585,11.525 18.759,10.895 18.445,11.179 19.015,12.038 19.497,12.763 22.149,15.312 22.378,15.27 22.711,15.208 22.966,14.541 22.912,13.873 22.82,12.743 22.023,11.568 20.776,10.726 19.637,9.9579 17.479,8.9768 16.507,8.7856 13.408,8.1765 10.384,10.103 9.9389,12.971 9.6725,14.688 10.624,16.958 12.406,18.857 12.701,19.172 12.961,19.411 12.984,19.389 13.006,19.367 12.732,18.766 12.375,18.054 Z"/>
 <path style="opacity:0.2;fill:#ffffff" d="M 16.029,2.0003 A 1.28,1.3121 0 0 0 15.359,2.1761 L 4.641,8.5218 A 1.28,1.3121 0 0 0 4,9.6565 V 10.656 A 1.28,1.3121 0 0 1 4.6406,9.5218 L 15.359,3.1761 A 1.28,1.3121 0 0 1 16.029,3.0003 1.28,1.3121 0 0 1 16.641,3.1761 L 27.359,9.5218 A 1.28,1.3121 0 0 1 28,10.656 V 9.6565 A 1.28,1.3121 0 0 0 27.359,8.5218 L 16.641,2.1761 A 1.28,1.3121 0 0 0 16.029,2.0003 Z"/>
 <path style="opacity:0.2" d="M 4,22.343 V 23.343 A 1.28,1.3121 0 0 0 4.6406,24.48 L 15.36,30.824 A 1.28,1.3121 0 0 0 16.641,30.824 L 27.36,24.48 A 1.28,1.3121 0 0 0 28,23.343 V 22.343 A 1.28,1.3121 0 0 1 27.359,23.479 L 16.64,29.823 A 1.28,1.3121 0 0 1 15.359,29.823 L 4.641,23.479 A 1.28,1.3121 0 0 1 4,22.342 Z"/>
</svg>
